app/images/icons/user.svg

<svg xmlns="http://www.w3.org/2000/svg" preserveAspectRatio="xMidYMid" width="13.688" height="13.16"><path d="M13.685 12.755a.42.42 0 01-.428.411H.424a.42.42 0 01-.428-.411c0-2.99 2.097-5.491 4.941-6.29-1.035-.617-1.732-1.711-1.732-2.966 0-1.928 1.631-3.496 3.636-3.496 2.004 0 3.636 1.568 3.636 3.496 0 1.255-.697 2.349-1.733 2.966 2.844.799 4.941 3.3 4.941 6.29zM9.621 3.499c0-1.474-1.247-2.673-2.78-2.673-1.533 0-2.781 1.199-2.781 2.673 0 1.475 1.248 2.674 2.781 2.674 1.533 0 2.78-1.199 2.78-2.674zm-2.78 3.497c-3.159 0-5.754 2.363-5.974 5.347h11.947c-.22-2.984-2.815-5.347-5.973-5.347z" fill="#436372" fill-rule="evenodd"/></svg>

<svg xmlns="http://www.w3.org/2000/svg" xmlns:xlink="http://www.w3.org/1999/xlink" preserveAspectRatio="xMidYMid" width="13.688" height="13.16" viewBox="0 0 13.688 13.16">
  <defs>
    <style>
      .cls-1 {
        fill: #436372;
        fill-rule: evenodd;
      }
    </style>
  </defs>
  <path d="M13.685,12.755 C13.685,12.982 13.493,13.166 13.257,13.166 L0.424,13.166 C0.188,13.166 -0.004,12.982 -0.004,12.755 C-0.004,9.765 2.093,7.264 4.937,6.465 C3.902,5.848 3.205,4.754 3.205,3.499 C3.205,1.571 4.836,0.003 6.841,0.003 C8.845,0.003 10.477,1.571 10.477,3.499 C10.477,4.754 9.780,5.848 8.744,6.465 C11.588,7.264 13.685,9.765 13.685,12.755 ZM9.621,3.499 C9.621,2.025 8.374,0.826 6.841,0.826 C5.308,0.826 4.060,2.025 4.060,3.499 C4.060,4.974 5.308,6.173 6.841,6.173 C8.374,6.173 9.621,4.974 9.621,3.499 ZM6.841,6.996 C3.682,6.996 1.087,9.359 0.867,12.343 L12.814,12.343 C12.594,9.359 9.999,6.996 6.841,6.996 Z" class="cls-1"/>
</svg>
